X: 28653
T: Musical Priest, The
R: reel
M: 4/4
K: Bminor
FB BF B2 Bd|cBAf ecBA|FB BF B2 Bd|1 cBAc B2 B2:|2 cBAc B2 Bc||
|:d2 dc df ed|cA ec fc ec|dcBc defb|afec B2 Bc:|
|:dBBB bafb|afec AB B2|dBBB bafb|afec B2 Bc:|
|:dBBB bBBB|cBAB cdec|dBBB bBBB|cBAc B2 Bc:|
|:dBBB [FB]2 (3[FB][FB][FB]|[GB]2 (3[GB][GB][GB] [FB]2 (3[FB][FB][FB]|[Fd]2 (3[FB][FB][FB] B2 BB|1 cB Ac B2 Bc:|2 cB Ac [FB]4||

